!!!SOCIAL_FUNCTION:	ceremonial songs
!!!PDT:	1909
!!!OTL: No_61_Initiation_Song.krn
!!!REG: Great_Lakes
!!!LANG: Non-Tone
!!!LING_GROUP: Algonquin
**kern
*staff1
=1-
*clefF4
*k[f#c#g#]
*M3/4
4e\
8e\L
8e\J
8c#\L
8d\J
=2
2e\
8c#\L
8B\J
=3||
*M4/4
2.A\
4A\
=4||
*M3/4
4e\
8c#\L
8B\J
8A\L
8B\J
=5
2A\
8E\L
8E\J
=6||
*M4/4
2.C#/
4C#/
=7||
*M3/4
4E\
8E\L
8E\J
8C#/L
8D/J
=8
2E\
8E\L
8E\J
=9||
*M4/4
2C#/
4C#/
4C#/
=10||
*M3/4
8e\L
8e\J
8e\L
8e\J
8c#\L
8d\J
=11
2e\
8c#\L
8B\J
=12||
*M4/4
2.A\
4A\
=13||
*M3/4
4e\
8c#\L
8B\J
8A\L
8B\J
=14
2A\
8E\L
8E\J
=15||
*M4/4
2.C#/
4C#/
=16||
*M3/4
4E\
8E\L
8E\J
8C#/L
8D/J
=17
2E\
8E\L
8E\J
=18||
*M4/4
2.C#/
4C#/
==
*-
